!!!OTL: Shannanhaibei dou zhaohong
!!!ARE: Asia, China,ÿAnhui Fanchang
!! III, 518, 2)
!!!SCT: C2042
!!!YEM: Copyright 1995, estate of Helmut Schaffrath.
**kern
*ICvox
*Ivox
*M2/4
*k[b-e-]
*B-:
{8ddd
8ddd
[4ccc
=1
2ccc]}
=2
{8ddd
8fff
8ddd
8ccc
=3
[2bb-
=4
4bb-]}
{8ccc
8ddd
=5
8ccc
8bb-
16ccc
16bb-
16gg
16ff
=6
2dd}
=7
{8.ff
16gg
4bb-
=8
8ccc
16ddd
16ccc
16ccc
16bb-
16gg
[16dd
=9
8.dd]
16ff}
{8gg
16ff
16gg
=10
8.bb-
16ff
8gg
16ff
16gg
=11
2ff}
==
!!!AGN: Shange
!!!AMT: simple duple
!!!AIN: vox
!!!EED: Helmut Schaffrath
!!!EEV: 1.0
*-
!!!ONB: Tied note syntax fixed by Craig Sapp, 2004/05/03/
